src/assets/animalImage/img/snail.svg

<?xml version="1.0" encoding="UTF-8" standalone="no"?><!DOCTYPE svg PUBLIC "-//W3C//DTD SVG 1.1//EN" "http://www.w3.org/Graphics/SVG/1.1/DTD/svg11.dtd"><svg width="100%" height="100%" viewBox="0 0 371 196" version="1.1" xmlns="http://www.w3.org/2000/svg" xmlns:xlink="http://www.w3.org/1999/xlink" xml:space="preserve" style="fill-rule:evenodd;clip-rule:evenodd;stroke-linejoin:round;stroke-miterlimit:1.41421;"><path d="M296.925,154.249c-4.291,0 -7.788,-3.494 -7.788,-7.778c0,-4.312 3.497,-7.787 7.788,-7.787c4.306,0 7.781,3.475 7.781,7.787c0,4.284 -3.475,7.778 -7.781,7.778Zm70.825,-67.769c-3.047,-3.056 -7.963,-3.056 -11.01,0c-2.64,2.629 -2.843,6.625 -0.915,9.632l-34.719,34.737c-1.041,-0.712 -2.169,-1.234 -3.228,-1.815l10.437,-38.957c3.569,0.172 6.928,-2.025 7.872,-5.59c1.15,-4.163 -1.331,-8.425 -5.494,-9.532c-4.156,-1.14 -8.418,1.344 -9.525,5.516c-0.956,3.591 0.835,7.141 4.038,8.797l-10.241,38.184c-4.281,-1.893 -8.997,-3.034 -13.94,-3.315c-35.197,-1.941 -29.838,34.759 -43.957,34.759c-3.284,0 -19.809,-7.462 -19.809,-7.462l-11.341,2.321c-39.475,5.729 -76.643,-21.812 -78.068,-22.875l-4.507,-3.415c0,0 -7.625,14.715 -21.115,22.081c-9.991,5.425 -21.497,6.553 -29.391,6.553c-14.459,0 -32.706,-4.025 -40.869,-13.037c-1.287,-1.422 -2.306,-2.953 -3.487,-4.419c-41.65,21.312 -58.728,56.547 -42.303,56.547c26.74,0 294.837,0 294.837,0c19.61,0 35.516,-15.913 35.516,-35.528c0,-10.985 -5.1,-20.344 -12.925,-26.75l34.487,-34.51c3.01,1.963 6.991,1.725 9.632,-0.89c3.065,-3.06 3.065,-7.997 0.025,-11.032Z" style="fill:#f4bf72;fill-rule:nonzero;"/><path d="M118.481,142.69c33.072,-17.985 20.922,-85.103 -19.444,-61.769c40.353,-33.537 57.319,32.772 53.503,43.713c0,0 35.472,26.8 72.228,21.381c0,-46.553 -16.443,-122.575 -83.909,-141.906c-89.953,-25.772 -135.65,75.843 -83.137,133.718c8.871,9.769 41.625,15.3 60.759,4.863Z" style="fill:#c1bdbc;fill-rule:nonzero;"/><path d="M303.484,150.227c0,3.069 -2.494,5.56 -5.563,5.56c-3.074,0 -5.562,-2.491 -5.562,-5.56c0,-3.075 2.488,-5.562 5.562,-5.562c3.069,0 5.563,2.487 5.563,5.562Z" style="fill:#725534;fill-rule:nonzero;"/></svg>

<?xml version="1.0" encoding="UTF-8" standalone="no"?>
<!DOCTYPE svg PUBLIC "-//W3C//DTD SVG 1.1//EN" "http://www.w3.org/Graphics/SVG/1.1/DTD/svg11.dtd">
<svg width="100%" height="100%" viewBox="0 0 371 371" version="1.1" xmlns="http://www.w3.org/2000/svg" xmlns:xlink="http://www.w3.org/1999/xlink" xml:space="preserve" xmlns:serif="http://www.serif.com/" style="fill-rule:evenodd;clip-rule:evenodd;stroke-linejoin:round;stroke-miterlimit:1.41421;">
    <g transform="matrix(1,0,0,1,0,87.5)">
        <path d="M296.925,154.249C292.634,154.249 289.137,150.755 289.137,146.471C289.137,142.159 292.634,138.684 296.925,138.684C301.231,138.684 304.706,142.159 304.706,146.471C304.706,150.755 301.231,154.249 296.925,154.249ZM367.75,86.48C364.703,83.424 359.787,83.424 356.74,86.48C354.1,89.109 353.897,93.105 355.825,96.112L321.106,130.849C320.065,130.137 318.937,129.615 317.878,129.034L328.315,90.077C331.884,90.249 335.243,88.052 336.187,84.487C337.337,80.324 334.856,76.062 330.693,74.955C326.537,73.815 322.275,76.299 321.168,80.471C320.212,84.062 322.003,87.612 325.206,89.268L314.965,127.452C310.684,125.559 305.968,124.418 301.025,124.137C265.828,122.196 271.187,158.896 257.068,158.896C253.784,158.896 237.259,151.434 237.259,151.434L225.918,153.755C186.443,159.484 149.275,131.943 147.85,130.88L143.343,127.465C143.343,127.465 135.718,142.18 122.228,149.546C112.237,154.971 100.731,156.099 92.837,156.099C78.378,156.099 60.131,152.074 51.968,143.062C50.681,141.64 49.662,140.109 48.481,138.643C6.831,159.955 -10.247,195.19 6.178,195.19C32.918,195.19 301.015,195.19 301.015,195.19C320.625,195.19 336.531,179.277 336.531,159.662C336.531,148.677 331.431,139.318 323.606,132.912L358.093,98.402C361.103,100.365 365.084,100.127 367.725,97.512C370.79,94.452 370.79,89.515 367.75,86.48Z" style="fill:rgb(244,191,114);fill-rule:nonzero;"/>
    </g>
    <g transform="matrix(1,0,0,1,0,87.5)">
        <path d="M118.481,142.69C151.553,124.705 139.403,57.587 99.037,80.921C139.39,47.384 156.356,113.693 152.54,124.634C152.54,124.634 188.012,151.434 224.768,146.015C224.768,99.462 208.325,23.44 140.859,4.109C50.906,-21.663 5.209,79.952 57.722,137.827C66.593,147.596 99.347,153.127 118.481,142.69Z" style="fill:rgb(193,189,188);fill-rule:nonzero;"/>
    </g>
    <g transform="matrix(1,0,0,1,0,87.5)">
        <path d="M303.484,150.227C303.484,153.296 300.99,155.787 297.921,155.787C294.847,155.787 292.359,153.296 292.359,150.227C292.359,147.152 294.847,144.665 297.921,144.665C300.99,144.665 303.484,147.152 303.484,150.227Z" style="fill:rgb(114,85,52);fill-rule:nonzero;"/>
    </g>
</svg>
